src/next/cmd/32/setoptimalcolumnwidth.svg

<svg height="32" width="32" xmlns="http://www.w3.org/2000/svg" xmlns:xlink="http://www.w3.org/1999/xlink"><linearGradient id="a"><stop offset="0" stop-color="#828282"/><stop offset="1" stop-color="#828282" stop-opacity="0"/></linearGradient><linearGradient id="b" gradientTransform="matrix(.23077495 0 0 .91306627 50.769231 10.953601)" gradientUnits="userSpaceOnUse" x1="46.048" x2="46.048" y1="128.01709" y2="16.6203"><stop offset="0" stop-color="#c7cdd7"/><stop offset="1" stop-color="#fff"/></linearGradient><linearGradient id="c" gradientTransform="matrix(.230775 0 0 1.5000375 49.538461 -64.004803)" gradientUnits="userSpaceOnUse" x1="114.6638" x2="114.6638" y1="101.334" y2="112.0004"><stop offset="0" stop-color="#c9d1dc"/><stop offset="1" stop-color="#c9d1dc" stop-opacity="0"/></linearGradient><linearGradient id="d" gradientUnits="userSpaceOnUse" x1="136" x2="136" y1="-32.325989" y2="104.05867"><stop offset="0" stop-color="#fff"/><stop offset="1" stop-color="#555"/></linearGradient><linearGradient id="e" gradientUnits="userSpaceOnUse" x1="52" x2="52" xlink:href="#a" y1="88" y2="108"/><linearGradient id="f" gradientUnits="userSpaceOnUse" x1="80" x2="80" xlink:href="#a" y1="88" y2="108"/><linearGradient id="g"><stop offset="0" stop-color="#0968ef"/><stop offset="1" stop-color="#aecffc"/></linearGradient><linearGradient id="h" gradientUnits="userSpaceOnUse" x1="118.65708" x2="64" xlink:href="#g" y1="60.891796" y2="59.994251"/><linearGradient id="i" gradientTransform="matrix(-.49928121 0 0 .49928121 65.8402 48.00575)" gradientUnits="userSpaceOnUse" x1="113.15723" x2="-4.325819" xlink:href="#g" y1="25.786163" y2="24.000002"/><g transform="scale(.25)"><path d="m52 88h24v20h-24z" fill="url(#c)" opacity=".764706"/><path d="m52 28h24v56h-24z" fill="url(#b)"/><text x="552.36987" y="202.81038"><tspan fill="#555" x="552.36987" y="219.61037"/></text><path d="m48 24v4 16 4 16 4 16 4h4 24 4v-4-16-4-16-4-16-4h-4-24zm4 4h24v16h-24zm0 20h24v16h-24zm0 20h24v16h-24z" fill="url(#d)"/><path d="m48 88h4v20h-4z" fill="url(#e)"/><path d="m76 88h4v20h-4z" fill="url(#f)"/><text x="284.18808" y="202.81038"><tspan fill="#555" x="284.18808" y="219.61037"/></text><text x="-10.252362" y="133.87732"><tspan fill="#555" x="-10.252362" y="150.67731"/></text><text x="161.66467" y="-39.856026"><tspan fill="#555" x="161.66467" y="-23.056038"/></text><g fill-rule="evenodd"><path d="m122.07355 61.99713-11.98275-9.98563-1.98456 1.98457 3.89376 6.00393-28 .00575v3.99425l28-.0057-3.89376 5.90345 1.98456 2.08505 11.98275-9.98563z" fill="url(#h)"/><path d="m5.926453 61.98563 11.982749-9.98563 1.984563 1.98457-3.893765 6.00393 28 .0115v3.99425l-28-.01145 3.893765 5.90345-1.984563 2.08505-11.982749-9.98563z" fill="url(#i)"/></g></g></svg>

<?xml version="1.0" encoding="UTF-8" standalone="no"?>
<svg
   xmlns:dc="http://purl.org/dc/elements/1.1/"
   xmlns:cc="http://creativecommons.org/ns#"
   xmlns:rdf="http://www.w3.org/1999/02/22-rdf-syntax-ns#"
   xmlns:svg="http://www.w3.org/2000/svg"
   xmlns="http://www.w3.org/2000/svg"
   xmlns:xlink="http://www.w3.org/1999/xlink"
   xmlns:sodipodi="http://sodipodi.sourceforge.net/DTD/sodipodi-0.dtd"
   xmlns:inkscape="http://www.inkscape.org/namespaces/inkscape"
   height="32"
   width="32"
   version="1.1"
   id="svg63"
   sodipodi:docname="setoptimalcolumnwidth.svg"
   inkscape:version="0.92.3 (2405546, 2018-03-11)"
   inkscape:export-filename="/home/rizmut/Dokumen/Rizmut/Github/libreoffice-style-karasa-jaga/build/next/cmd/32/setoptimalcolumnwidth.png"
   inkscape:export-xdpi="96"
   inkscape:export-ydpi="96">
  <metadata
     id="metadata69">
    <rdf:RDF>
      <cc:Work
         rdf:about="">
        <dc:format>image/svg+xml</dc:format>
        <dc:type
           rdf:resource="http://purl.org/dc/dcmitype/StillImage" />
        <dc:title></dc:title>
      </cc:Work>
    </rdf:RDF>
  </metadata>
  <defs
     id="defs67" />
  <sodipodi:namedview
     pagecolor="#ffffff"
     bordercolor="#666666"
     borderopacity="1"
     objecttolerance="10"
     gridtolerance="10"
     guidetolerance="10"
     inkscape:pageopacity="0"
     inkscape:pageshadow="2"
     inkscape:window-width="1366"
     inkscape:window-height="714"
     id="namedview65"
     showgrid="true"
     inkscape:zoom="7.375"
     inkscape:cx="16.043446"
     inkscape:cy="21.223303"
     inkscape:window-x="0"
     inkscape:window-y="28"
     inkscape:window-maximized="1"
     inkscape:current-layer="g92">
    <inkscape:grid
       type="xygrid"
       id="grid71" />
  </sodipodi:namedview>
  <linearGradient
     id="a">
    <stop
       offset="0"
       stop-color="#828282"
       id="stop2" />
    <stop
       offset="1"
       stop-color="#828282"
       stop-opacity="0"
       id="stop4" />
  </linearGradient>
  <linearGradient
     id="b"
     gradientTransform="matrix(0.23077495,0,0,0.91306627,50.769231,10.953601)"
     gradientUnits="userSpaceOnUse"
     x1="46.048"
     x2="46.048"
     y1="128.01709"
     y2="16.6203">
    <stop
       offset="0"
       stop-color="#c7cdd7"
       id="stop7" />
    <stop
       offset="1"
       stop-color="#fff"
       id="stop9" />
  </linearGradient>
  <linearGradient
     id="c"
     gradientTransform="matrix(0.230775,0,0,1.5000375,49.538461,-64.004803)"
     gradientUnits="userSpaceOnUse"
     x1="114.6638"
     x2="114.6638"
     y1="101.334"
     y2="112.0004">
    <stop
       offset="0"
       stop-color="#c9d1dc"
       id="stop12" />
    <stop
       offset="1"
       stop-color="#c9d1dc"
       stop-opacity="0"
       id="stop14" />
  </linearGradient>
  <linearGradient
     id="d"
     gradientUnits="userSpaceOnUse"
     x1="136"
     x2="136"
     y1="-32.325989"
     y2="104.05867">
    <stop
       offset="0"
       stop-color="#fff"
       id="stop17" />
    <stop
       offset="1"
       stop-color="#555"
       id="stop19" />
  </linearGradient>
  <linearGradient
     id="e"
     gradientUnits="userSpaceOnUse"
     x1="52"
     x2="52"
     xlink:href="#a"
     y1="88"
     y2="108" />
  <linearGradient
     id="f"
     gradientUnits="userSpaceOnUse"
     x1="80"
     x2="80"
     xlink:href="#a"
     y1="88"
     y2="108" />
  <linearGradient
     id="g">
    <stop
       offset="0"
       stop-color="#0968ef"
       id="stop24" />
    <stop
       offset="1"
       stop-color="#aecffc"
       id="stop26" />
  </linearGradient>
  <linearGradient
     id="h"
     gradientUnits="userSpaceOnUse"
     x1="118.65708"
     x2="64"
     xlink:href="#g"
     y1="60.891796"
     y2="59.994251" />
  <linearGradient
     id="i"
     gradientTransform="matrix(-0.49928121,0,0,0.49928121,65.8402,48.00575)"
     gradientUnits="userSpaceOnUse"
     x1="113.15723"
     x2="-4.325819"
     xlink:href="#g"
     y1="25.786163"
     y2="24.000002" />
  <g
     id="g92"
     transform="scale(0.25)">
    <path
       id="path31"
       d="m 52,88 h 24 v 20 H 52 Z"
       style="opacity:0.764706;fill:url(#c)"
       inkscape:connector-curvature="0" />
    <path
       id="path33"
       d="M 52,28 H 76 V 84 H 52 Z"
       style="fill:url(#b)"
       inkscape:connector-curvature="0" />
    <text
       id="text37"
       y="202.81038"
       x="552.36987">
      <tspan
         id="tspan35"
         y="219.61037"
         x="552.36987"
         style="fill:#555555" />
    </text>
    <path
       id="path39"
       d="m 48,24 v 4 16 4 16 4 16 4 h 4 24 4 V 84 68 64 48 44 28 24 H 76 52 Z m 4,4 H 76 V 44 H 52 Z m 0,20 H 76 V 64 H 52 Z m 0,20 H 76 V 84 H 52 Z"
       style="fill:url(#d)"
       inkscape:connector-curvature="0" />
    <path
       id="path41"
       d="m 48,88 h 4 v 20 h -4 z"
       style="fill:url(#e)"
       inkscape:connector-curvature="0" />
    <path
       id="path43"
       d="m 76,88 h 4 v 20 h -4 z"
       style="fill:url(#f)"
       inkscape:connector-curvature="0" />
    <text
       id="text47"
       y="202.81038"
       x="284.18808">
      <tspan
         id="tspan45"
         y="219.61037"
         x="284.18808"
         style="fill:#555555" />
    </text>
    <text
       id="text51"
       y="133.87732"
       x="-10.252362">
      <tspan
         id="tspan49"
         y="150.67731"
         x="-10.252362"
         style="fill:#555555" />
    </text>
    <text
       id="text55"
       y="-39.856026"
       x="161.66467">
      <tspan
         id="tspan53"
         y="-23.056038"
         x="161.66467"
         style="fill:#555555" />
    </text>
    <g
       id="g61"
       style="fill-rule:evenodd">
      <path
         id="path57"
         d="M 122.07355,61.99713 110.0908,52.0115 108.10624,53.99607 112,60 84,60.00575 V 64 l 28,-0.0057 -3.89376,5.90345 1.98456,2.08505 11.98275,-9.98563 z"
         style="fill:url(#h)"
         inkscape:connector-curvature="0" />
      <path
         id="path59"
         d="M 5.926453,61.98563 17.909202,52 19.893765,53.98457 16,59.9885 44,60 v 3.99425 L 16,63.9828 19.893765,69.88625 17.909202,71.9713 5.926453,61.98567 Z"
         style="fill:url(#i)"
         inkscape:connector-curvature="0" />
    </g>
  </g>
</svg>
